X: 0
T: Devil's Flute
P: piffero primo a0533
O: Bill Krug
%R: quick-step, polka
F: http://ancients.sudburymuster.org/mus/ssp/pdf/devilsfC0.pdf
Z: 2020 John Chambers <jc:trillian.mit.edu>
M: 2/4
L: 1/16
K: G
(3(DEF) |\
G2B2 D2(3(DEF) | G2B2 d4 | edcB cBAG | BAGF GFED |\
G2B2 D2(3(DEF) |
G2B2 d4 | edcB cBAG | BAGF G2 :: GA |\
B2d2 g2fe | dgdB A2BA |
GABG ABcA | BcdB A2GA |\
B2d2 g2fg | agfe d2ef | g2Bc d2D2 | G6 :: (3(DEF) |
G2GA B2G2 | A2AB c2A2 | Bcdg dBGg | dBGB A2(3(DEF) |\
G2GA B2G2 | A2AB c2A2 |
Bcdg dBGA | B2A2 G2 :: d2 |\
(gfg)e dBGB | (gfg)e d2ef | (gfg)e dBGB |
dgdB A2d2 |\
(gfg)e dBGB | (gfg)e d2ef | (gfg)e dBGA | B2A2 G2 :|


